svgs/sharp-thin/laptop-mobile.svg

<svg xmlns="http://www.w3.org/2000/svg" viewBox="0 0 640 512"><!--! Font Awesome Pro 6.6.0 by @fontawesome - https://fontawesome.com License - https://fontawesome.com/license (Commercial License) Copyright 2024 Fonticons, Inc. --><path d="M80 16l416 0 0 80 16 0 0-80 0-16L496 0 80 0 64 0l0 16 0 272-48 0L0 288l0 16 0 32 48 48 304 0 0-16L54.6 368 16 329.4 16 304l48 0 16 0 272 0 0-16L80 288 80 16zM624 144l0 352-224 0 0-352 224 0zM384 512l16 0 224 0 16 0 0-16 0-352 0-16-16 0-224 0-16 0 0 16 0 352 0 16z"/></svg>

<svg xmlns="http://www.w3.org/2000/svg" viewBox="0 0 640 512"><!--! Font Awesome Pro 6.5.2 by @fontawesome - https://fontawesome.com License - https://fontawesome.com/license (Commercial License) Copyright 2024 Fonticons, Inc. --><path d="M80 16H496V96h16V16 0H496 80 64V16 288H16 0v16 32l48 48H352V368H54.6L16 329.4V304H64 80 352V288H80V16zM400 496V144H624V496H400zM384 128v16V496v16h16H624h16V496 144 128H624 400 384z"/></svg>
